dist/img/mail.svg

<?xml version="1.0" encoding="UTF-8"?>
<svg width="28px" height="30px" viewBox="0 0 28 30" version="1.1" xmlns="http://www.w3.org/2000/svg" xmlns:xlink="http://www.w3.org/1999/xlink">
    <!-- Generator: Sketch 40 (33762) - http://www.bohemiancoding.com/sketch -->
    <title>noun_68948_cc</title>
    <desc>Created with Sketch.</desc>
    <defs></defs>
    <g id="Page-1" stroke="none" stroke-width="1" fill="none" fill-rule="evenodd" opacity="0.5">
        <g id="02-doubler-page" transform="translate(-331.000000, -3864.000000)" fill="#FFFFFF">
            <g id="noun_68948_cc" transform="translate(331.000000, 3864.000000)">
                <g id="Group">
                    <path d="M19.4148706,8.52733333 L20.4630588,9.13333333 L17.5438118,18.601 C18.1051294,19.5856667 19.1154353,21.4413333 20.5006118,21.517 C22.6714353,21.0626667 24.5049412,15.95 24.7671529,12.39 C25.1038118,7.84533333 21.5484706,3.49033333 15.8598588,3.07366667 C7.81331765,2.46766667 3.43444706,8.33766667 3.09778824,13.261 C2.46136471,22.653 9.90903529,26.6296667 16.5331765,26.9323333 L16.2712941,30 C3.88343529,29.2426667 -0.420329412,21.0626667 0.103435294,13.034 C0.627529412,5.15666667 7.32644706,-0.562 16.0466353,0.044 C23.4195294,0.536333333 28.1729412,6.40633333 27.7611765,12.5793333 C27.4245176,17.465 24.7671529,23.9786667 20.5378353,24.5466667 C18.3297882,24.8116667 16.4584,22.6153333 15.4853176,21.0246667 C14.6993412,21.5173333 13.6518118,21.8956667 12.4540706,21.934 C12.3789647,21.896 12.3041882,21.896 12.2294118,21.896 C10.5079059,21.7823333 8.89872941,20.76 7.92564706,19.1693333 C6.65312941,17.124 6.57835294,14.4733333 7.70098824,11.936 C8.26230588,10.724 8.89872941,9.73933333 9.75948235,9.02 C10.4706824,8.30033333 11.2938824,7.808 12.2669647,7.543 C13.7265882,7.05066667 15.4480941,7.05066667 17.2071529,7.581 C18.5168941,7.997 19.3400941,8.52733333 19.4148706,8.52733333 Z M14.6245647,17.9193333 L16.8701647,10.6856667 C16.3088471,10.4963333 15.5976471,10.2313333 14.8116706,10.1933333 C14.2503529,10.1553333 13.6890353,10.231 13.1277176,10.4206667 C12.0047529,10.7613333 11.1067765,11.6323333 10.5079059,13.1093333 C9.75948235,14.7756667 9.75948235,16.3663333 10.4706824,17.5403333 C10.9572235,18.3736667 11.7432,18.866 12.4916235,18.9036667 C13.3144941,18.9036667 14.2128,18.298 14.6245647,17.9193333 Z" id="Shape"></path>
                </g>
            </g>
        </g>
    </g>
</svg>

<svg width="28" height="30" viewBox="0 0 28 30" xmlns="http://www.w3.org/2000/svg"><title>noun_68948_cc</title><path d="M19.415 8.527l1.048.606-2.92 9.468c.562.985 1.572 2.84 2.958 2.916 2.17-.454 4.004-5.567 4.266-9.127.337-4.545-3.219-8.9-8.907-9.316C7.813 2.468 3.434 8.338 3.098 13.26c-.638 9.393 6.811 13.37 13.435 13.672L16.271 30C3.883 29.243-.42 21.063.103 13.034.628 5.157 7.326-.562 16.047.044 23.42.536 28.173 6.406 27.76 12.579c-.336 4.886-2.994 11.4-7.223 11.968-2.208.265-4.08-1.932-5.053-3.522a6.113 6.113 0 0 1-3.03.909c-.076-.038-.15-.038-.226-.038-1.721-.114-3.33-1.136-4.303-2.727-1.273-2.045-1.348-4.696-.225-7.233.561-1.212 1.198-2.197 2.058-2.916a5.479 5.479 0 0 1 2.508-1.477c1.46-.492 3.181-.492 4.94.038 1.31.416 2.133.946 2.208.946zm-4.79 9.392l2.245-7.233c-.561-.19-1.272-.455-2.058-.493a4.307 4.307 0 0 0-1.684.228c-1.123.34-2.021 1.211-2.62 2.688-.749 1.667-.749 3.257-.037 4.431.486.834 1.272 1.326 2.02 1.364.823 0 1.722-.606 2.134-.985z" fill="#FFF" fill-rule="evenodd" opacity=".5"/></svg>
